X:1
T:Bellringers
O:Devon
M:6/8
L:1/16
K:Gmaj
%%text Played evenly and quickly as if bellringing
d2 | g2e2g2 f2d2ff | c2e2d2 A2c2B2 | \
G2B2d2 c2e2d2 | A2c2B2 G4dd |
g2e2g2 f2d2f2 | c2e2d2 A2c2B2 | \
G2B2d2 c2e2d2 | A2c2B2 G4dd |
g2e2f2 d4d2 | g2e2f2 d4d2 | \
G2B2d2 c2e2d2 | A2c2B2 G4 dd |
g2e2g2 f2d2f2 | c2e2d2 A2c2B2 | \
G2B2d2 c2e2d2 | A2c2B2 G4 |]

